svg/OSM-icons/barrier #666666 °ffffff !label=enbarriers,deAbsperrungen/13007;barrier=cattle_grid;!label=encattle grid,deViehgitter.svg

<svg xmlns="http://www.w3.org/2000/svg" viewBox="0 0 580 580" enable-background="new 0 0 580 580"><path fill="#111" stroke="#eee" stroke-width="3.408" d="m66.28 1.768c-41.34 0-64.57 21.371-64.57 65.04v450.12c0 40.844 20.894 62.23 62.19 62.23h452.02c41.31 0 62.23-20.316 62.23-62.23v-450.12c0-42.601-20.923-65.04-63.52-65.04-.003 0-448.49-.143-448.35 0z"/><g transform="translate(6.968 6.31)" fill="#fff"><path d="m511.03 466.43h-456c-8.284 0-15-6.716-15-15s6.716-15 15-15h456c8.284 0 15 6.716 15 15s-6.716 15-15 15"/><path d="m491.03 406.43h-416c-6.903 0-12.5-5.597-12.5-12.5s5.597-12.5 12.5-12.5h416c6.903 0 12.5 5.597 12.5 12.5s-5.597 12.5-12.5 12.5"/><path d="m471.03 352.93h-376c-5.523 0-10-4.478-10-10s4.477-10 10-10h376c5.522 0 10 4.478 10 10s-4.478 10-10 10"/><path d="m451.03 305.43h-335.99c-4.971 0-9-4.03-9-9s4.03-9 9-9h335.99c4.971 0 9 4.03 9 9s-4.03 9-9 9"/></g></svg>

<?xml version="1.0" encoding="utf-8"?>
<!-- Generator: Adobe Illustrator 15.0.0, SVG Export Plug-In . SVG Version: 6.00 Build 0)  -->
<!DOCTYPE svg PUBLIC "-//W3C//DTD SVG 1.1//EN" "http://www.w3.org/Graphics/SVG/1.1/DTD/svg11.dtd">
<svg version="1.1" xmlns="http://www.w3.org/2000/svg" xmlns:xlink="http://www.w3.org/1999/xlink" x="0px" y="0px" width="580px"
	 height="580px" viewBox="0 0 580 580" enable-background="new 0 0 580 580" xml:space="preserve">
<g id="Layer_2">
	<g id="g1327">
		<path id="path1329" fill="#111111" stroke="#EEEEEE" stroke-width="3.408" d="M66.275,1.768
			c-41.335,0-64.571,21.371-64.571,65.036v450.123c0,40.844,20.894,62.229,62.192,62.229H515.92
			c41.307,0,62.229-20.316,62.229-62.229V66.804c0-42.601-20.923-65.036-63.522-65.036C514.624,1.768,66.133,1.625,66.275,1.768z"/>
	</g>
</g>
<g id="svg2" inkscape:version="0.46" sodipodi:docname="waste_bin.svg" sodipodi:version="0.32" xmlns:dc="http://purl.org/dc/elements/1.1/" xmlns:cc="http://creativecommons.org/ns#" xmlns:sodipodi="http://sodipodi.sourceforge.net/DTD/sodipodi-0.dtd" xmlns:svg="http://www.w3.org/2000/svg" xmlns:rdf="http://www.w3.org/1999/02/22-rdf-syntax-ns#" xmlns:inkscape="http://www.inkscape.org/namespaces/inkscape" inkscape:output_extension="org.inkscape.output.svg.inkscape">
	<g id="g2325" transform="translate(6.968199,6.3098278)">
		<g id="line5891">
			<path fill="#FFFFFF" d="M511.032,466.427h-456c-8.284,0-15-6.716-15-15s6.716-15,15-15h456c8.284,0,15,6.716,15,15
				S519.316,466.427,511.032,466.427z"/>
		</g>
		<g id="line5893">
			<path fill="#FFFFFF" d="M491.03,406.427H75.032c-6.903,0-12.5-5.597-12.5-12.5s5.597-12.5,12.5-12.5H491.03
				c6.903,0,12.5,5.597,12.5,12.5S497.933,406.427,491.03,406.427z"/>
		</g>
		<g id="line5895">
			<path fill="#FFFFFF" d="M471.028,352.928H95.033c-5.523,0-10-4.478-10-10s4.477-10,10-10h375.995c5.522,0,10,4.478,10,10
				S476.55,352.928,471.028,352.928z"/>
		</g>
		<g id="line5897">
			<path fill="#FFFFFF" d="M451.026,305.433H115.034c-4.971,0-9-4.029-9-9s4.029-9,9-9h335.992c4.971,0,9,4.029,9,9
				S455.997,305.433,451.026,305.433z"/>
		</g>
	</g>
</g>
</svg>
